X: 543
T: Nian gaomian
L: 1/8
M: 2/4
K: F
c2A G [I:setbarnb 1]| 
c2A G | 
A/ z/ G/ z/ A/ z/ G/ z/ | 
f d c A | 
G> F D F | 
G4 | 
c Ac2 | 
A c A c | 
G2G2 | 
E> D E G | 
C4 | 
G E G E | 
E/ E/ E/ D/C2 | 
G E G E | 
E/ E/ E/ D/C2 | 
G> A c e | 
d cG2 | 
E> D E3/ D/ | 
C3D | 
C DC2 |]

@@@ Tune index: 9417
